X: 24795
T: Maggie In The Woods
R: polka
M: 2/4
K: Gmajor
|:GD G>A|Be e2|dB B/A/G/A/|BA AB/A/|
GD GG/A/|Be eg/e/|dB AB/A/|G2 G2:|
|:gf ed|Be eg/e/|dB B/A/G/A/|BA A(3B/c/d/|
g>f ed|Be- eg/e/|dB AB/A/|G2 G2:|

